X:21110 
T:LAST NIGHT'S FUN 
B:DMI.0452
Z:Nordberg/Black
R:slip jig
%Q:1/4=150
M:9/8
L:1/8
K:G
D2A A2G ABc|D2A AGE G2E|D2A A2G ABc|BAG AGE G2E|
D2A A2G ABc|D2A AGE G2E|D2A A2G ABc|dBG AGE G2E||
BAB dBG ABc|BAB dBG c2A|BAB dBG ABc|BAG AGE G2E|
BAB dBG ABc|B2c dBG c2A|def gfe dBG|BAG AGE HG3|]

%%%

